images/icons/site-logo.svg

<svg width="130" height="39" viewBox="0 0 130 39" fill="none" xmlns="http://www.w3.org/2000/svg">
<path d="M20.2168 0.0584384C-1.34498 0.436738 -8.25318 31.6029 12.3726 38.8582C12.6693 38.9779 12.9906 39.0241 13.309 38.9927C13.6274 38.9612 13.9334 38.8533 14.201 38.6779C14.4686 38.5025 14.6898 38.265 14.8457 37.9856C15.0015 37.7062 15.0874 37.3932 15.0961 37.0734V19.8769C14.9661 16.6828 5.08609 20.9326 5.34609 21.1354C5.07743 20.6456 4.87917 20.1204 4.75718 19.5753C11.174 15.4504 15.9112 17.2172 15.9112 17.2172C14.0769 16.367 10.2211 15.6572 4.74163 18.5653C4.86107 16.2216 5.63821 13.959 6.9841 12.0366C9.2113 10.8968 11.6954 10.3525 14.1952 10.4564C16.695 10.5602 19.1253 11.3089 21.2503 12.6295C23.3752 11.3158 25.8021 10.5703 28.298 10.4647C30.794 10.3591 33.2752 10.8968 35.5035 12.0262C36.8006 13.9615 37.5852 16.1945 37.7837 18.5158C31.064 15.4322 27.9375 16.5126 26.1006 17.3641C26.1006 17.3641 31.1706 15.6104 37.6641 19.5741C37.5683 20.1308 37.3858 20.669 37.1233 21.1692C35.8714 20.0811 27.5462 17.0521 27.346 19.8861V37.0876C27.3547 37.4067 27.4402 37.719 27.5955 37.9979C27.7508 38.2768 27.9711 38.514 28.2378 38.6894C28.5045 38.8648 28.8095 38.9732 29.1271 39.0053C29.4447 39.0374 29.7653 38.9923 30.0617 38.8739C51.6495 31.1077 42.9408 -1.56136 20.2168 0.0584384Z" fill="#2130AC"/>
<path d="M20.9651 20.3762C22.0688 19.1048 21.8114 27.7927 21.9232 28.5844C21.8179 29.3709 22.0623 38.0965 20.9651 36.8056C20.3567 31.346 20.3567 25.8358 20.9651 20.3762V20.3762Z" fill="#FF4C45"/>
<path d="M17.8463 23.1816C18.7446 22.0922 18.4639 28.0072 18.5653 28.5766C18.46 29.1733 18.7537 35.0337 17.8463 33.9833C17.4666 30.3928 17.4666 26.7722 17.8463 23.1816V23.1816Z" fill="#FF4C45"/>
<path d="M24.1461 23.1647C25.0288 22.0857 24.7805 28.0033 24.891 28.5779C24.7779 29.1798 25.0366 35.0324 24.1461 33.9911C23.7775 30.3917 23.7775 26.7641 24.1461 23.1647Z" fill="#FF4C45"/>
<path d="M50.4365 11.4334C50.4346 11.3654 50.4468 11.2978 50.4725 11.2348C50.4982 11.1718 50.5368 11.115 50.5857 11.0677C50.6346 11.0205 50.6929 10.984 50.7568 10.9605C50.8206 10.9371 50.8886 10.9273 50.9565 10.9316C51.2464 11.1916 65.5503 10.3206 65.0628 11.4334C64.9887 11.7454 65.2136 13.6161 64.9211 13.8332C64.9211 14.1946 59.6132 13.9282 59.4 14.0049C59.2609 14.3949 59.6691 28.9704 59.2583 29.2642C59.0893 29.5892 56.9066 29.3605 56.6115 29.4255C55.4415 30.0625 56.3424 14.1973 56.0746 14.0049C55.9524 13.962 50.4469 14.1348 50.5821 13.8631C50.2909 13.6577 50.4937 11.7532 50.4365 11.4334Z" fill="#0F0F54"/>
<path d="M70.4955 16.1863C70.2251 15.7963 68.4922 16.0563 68.1061 15.9861C68.0142 15.9806 67.9222 15.9951 67.8364 16.0285C67.7505 16.0619 67.6729 16.1135 67.6089 16.1797C67.5448 16.2458 67.4958 16.325 67.4652 16.4118C67.4346 16.4987 67.4231 16.5912 67.4315 16.6829C67.7487 17.0287 66.6645 30.2471 68.1153 29.4229C68.7185 29.2617 70.8452 29.8882 70.7334 28.7364V16.6764C70.7297 16.5827 70.7067 16.4908 70.6657 16.4064C70.6248 16.3221 70.5669 16.2471 70.4955 16.1863V16.1863Z" fill="#0F0F54"/>
<path d="M70.5407 11.1046C70.2651 10.7757 68.488 10.9928 68.1071 10.9317C68.0144 10.9193 67.9201 10.9287 67.8317 10.9591C67.7433 10.9895 67.6631 11.04 67.5977 11.1068C67.5322 11.1735 67.4832 11.2546 67.4545 11.3435C67.4258 11.4325 67.4182 11.527 67.4324 11.6194C67.5559 12.2187 67.0177 14.1622 68.1188 14.0634C68.7493 13.9451 70.8059 14.4885 70.7344 13.3289C70.6681 12.9506 70.9086 11.3646 70.5407 11.1046Z" fill="#FF4C45"/>
<path d="M74.978 15.2465C75.368 14.6706 76.4391 14.9943 77.0124 14.915C77.9042 14.8942 77.7327 16.2631 77.8471 16.8247C81.1673 12.3059 88.2704 15.5455 87.7556 20.9847C87.675 21.2694 87.9636 29.2462 87.5619 29.2254C87.3019 29.6154 85.66 29.3553 85.2635 29.432C84.6512 29.4242 84.5108 29.25 84.4978 28.652C84.4276 27.8096 84.6928 20.462 84.2911 19.8588C83.489 17.2406 79.6553 17.2199 78.4619 19.5729C77.6819 20.9496 78.4814 27.5705 78.0225 29.0525C77.8496 29.7415 76.0348 29.3189 75.5707 29.4294C75.0923 29.4294 74.8427 29.2084 74.8401 28.743C75.0052 28.2906 74.562 15.643 74.978 15.2465Z" fill="#0F0F54"/>
<path d="M102.275 28.3998C102.327 28.0668 102.354 27.7305 102.356 27.3935C98.326 32.1385 90.279 28.0202 90.6313 22.1377C90.2907 16.1746 98.3949 11.9015 102.504 16.7661C102.703 16.1161 102.405 14.8901 103.361 14.881C104.064 14.985 105.432 14.5158 105.522 15.5558C105.298 18.0622 106.079 28.3191 104.916 30.4641C103.406 34.1041 98.8746 35.2742 95.3386 34.1328C94.4988 33.7428 92.3356 33.2371 92.892 32.0255C93.2469 31.6927 93.763 30.2302 94.4182 30.5292C96.8167 32.2972 101.775 31.8747 102.275 28.3998ZM93.8423 22.1377C93.7851 27.9968 102.335 28.0007 102.494 22.2404C102.558 16.3696 93.8137 16.1577 93.8423 22.1377V22.1377Z" fill="#0F0F54"/>
<path d="M108.962 11.674C108.843 10.5313 111.028 11.1293 111.613 10.9876C111.785 11.0002 111.947 11.0783 112.063 11.206C112.18 11.3336 112.244 11.5011 112.241 11.674V28.743C112.249 28.8382 112.236 28.9339 112.204 29.0237C112.171 29.1134 112.119 29.195 112.052 29.263C111.786 29.6179 110.01 29.3553 109.634 29.4346C109.149 29.4346 108.965 29.2136 108.96 28.7482C108.962 28.743 108.962 11.674 108.962 11.674Z" fill="#0F0F54"/>
<path d="M130 28.7495C129.959 29.8012 128.232 29.315 127.577 29.4242C126.714 29.4749 126.859 28.3192 126.789 27.768C122.507 32.2764 114.624 28.0553 114.905 22.1572C114.582 16.1642 122.889 11.8963 126.971 16.7856C127.119 16.2409 126.939 14.7706 127.84 14.8785C128.466 14.9526 129.947 14.5847 130 15.5532V28.7495ZM118.116 22.1546C118.065 28.0787 126.742 27.9864 126.767 22.1546C126.722 16.3358 118.081 16.2422 118.116 22.1611V22.1546Z" fill="#0F0F54"/>
</svg>

<svg width="130" height="39" fill="none" xmlns="http://www.w3.org/2000/svg"><path d="M20.217.058c-21.562.379-28.47 31.545-7.844 38.8a1.983 1.983 0 0 0 2.723-1.785V19.877c-.13-3.194-10.01 1.056-9.75 1.258a5.943 5.943 0 0 1-.589-1.56c6.417-4.125 11.154-2.358 11.154-2.358-1.834-.85-5.69-1.56-11.17 1.348.12-2.343.897-4.606 2.243-6.528a14.506 14.506 0 0 1 14.266.592 14.574 14.574 0 0 1 14.254-.603 13.763 13.763 0 0 1 2.28 6.49c-6.72-3.084-9.846-2.003-11.683-1.152 0 0 5.07-1.754 11.563 2.21a5.405 5.405 0 0 1-.54 1.595c-1.253-1.088-9.578-4.117-9.778-1.283v17.202a1.982 1.982 0 0 0 2.716 1.786C51.65 31.108 42.94-1.561 20.217.058Z" fill="#2130AC"/><path d="M20.965 20.376c1.104-1.271.846 7.417.958 8.208-.105.787.14 9.512-.958 8.222a74.172 74.172 0 0 1 0-16.43ZM17.846 23.182c.899-1.09.618 4.825.72 5.395-.106.596.188 6.457-.72 5.406-.38-3.59-.38-7.21 0-10.801ZM24.146 23.165c.883-1.08.634 4.838.745 5.413-.113.602.146 6.454-.745 5.413a53.136 53.136 0 0 1 0-10.826Z" fill="#FF4C45"/><path d="M50.437 11.433a.49.49 0 0 1 .52-.501c.29.26 14.593-.611 14.106.501-.074.312.15 2.183-.142 2.4 0 .362-5.308.095-5.521.172-.14.39.27 14.965-.142 15.26-.169.324-2.351.095-2.647.16-1.17.637-.269-15.228-.536-15.42-.123-.043-5.628.13-5.493-.142-.291-.205-.088-2.11-.145-2.43ZM70.496 16.186c-.27-.39-2.004-.13-2.39-.2a.638.638 0 0 0-.674.697c.317.346-.767 13.564.683 12.74.604-.161 2.73.465 2.618-.687v-12.06a.68.68 0 0 0-.237-.49Z" fill="#0F0F54"/><path d="M70.54 11.105c-.275-.33-2.052-.112-2.433-.173a.602.602 0 0 0-.675.687c.124.6-.414 2.543.687 2.444.63-.118 2.687.425 2.615-.734-.066-.378.175-1.964-.193-2.224Z" fill="#FF4C45"/><path d="M74.978 15.246c.39-.575 1.461-.252 2.034-.331.892-.02.72 1.348.835 1.91 3.32-4.52 10.423-1.28 9.909 4.16-.081.284.208 8.261-.194 8.24-.26.39-1.902.13-2.299.207-.612-.008-.752-.182-.765-.78-.07-.842.195-8.19-.207-8.793-.802-2.618-4.636-2.64-5.83-.286-.78 1.377.02 7.997-.439 9.48-.172.688-1.987.266-2.451.376-.479 0-.728-.22-.73-.686.164-.452-.279-13.1.137-13.496ZM102.275 28.4c.052-.333.079-.67.081-1.006-4.03 4.745-12.077.626-11.725-5.256-.34-5.963 7.764-10.237 11.873-5.372.199-.65-.099-1.876.857-1.885.703.104 2.071-.365 2.161.675-.224 2.506.557 12.763-.606 14.908-1.51 3.64-6.041 4.81-9.577 3.669-.84-.39-3.003-.896-2.447-2.108.355-.332.871-1.795 1.526-1.496 2.399 1.768 7.357 1.346 7.857-2.13Zm-8.433-6.262c-.057 5.859 8.493 5.863 8.652.102.064-5.87-8.68-6.082-8.652-.102ZM108.962 11.674c-.119-1.143 2.066-.545 2.651-.686a.676.676 0 0 1 .628.686v17.069a.67.67 0 0 1-.189.52c-.266.355-2.042.092-2.418.172-.485 0-.669-.221-.674-.687.002-.005.002-17.074.002-17.074ZM130 28.75c-.041 1.051-1.768.565-2.423.674-.863.05-.718-1.105-.788-1.656-4.282 4.508-12.165.287-11.884-5.61-.323-5.994 7.984-10.262 12.066-5.372.148-.545-.032-2.015.869-1.908.626.075 2.107-.293 2.16.675V28.75Zm-11.884-6.595c-.051 5.924 8.626 5.831 8.651 0-.045-5.82-8.686-5.913-8.651.006v-.006Z" fill="#0F0F54"/></svg>
